X: 7753
T: Colours Of Cape Breton, The
R: waltz
M: 3/4
K: Gmajor
|:D>D|D2 E2 G2|A4 G>A|B2 E2 G2|A4 G>A|
B<d c2 B2|A>G E2 A>G|E2 D2 D2|D4:|
d>d|d2 A2 B2|c4 d>c|B>A G2 c2|A4 G>A|
B<d c2 B2|A>G E2 A>G|E2 D2 D2|D6|
d2 A2 B2|c2 d3 c|B>A G c2|A4 G>A|
B<d c2 B2|A>G E2 A>G|E2 D2 D2|1 D4||
!fine! D6||

